X: 1
T: Billy McCormack's
M: 6/8
L: 1/8
R: jig
K: Gmaj
|: ABG A z g | edB gdB | G z G BAG | dBG AGE |
ABG A z g | edB def | g z e fdB |1 BAG A z E :|2 BAG ABe||
|: aga bge | aga bge | g z g gdB | GAB deg |
a z a age | edB def | g z e fdB |1 BAG A z e :|2 BAG A z E ||
